X: 27203
T: Miss Pierce's
R: reel
M: 4/4
K: Dmajor
fefd cAAB|cAdB cAA2|fefd cAAB|cAGE A2D2:|
|:FABc d2dB|cAdB cAA2|FABc d2dB|cAGE A2D2:|
|:defg a2af|gfed cAA2|dcde fefd|cAGE A2D2:|

